X:29
T:Warm Winter Waltz
C:Corwin Zekley
L:1/8
M:3/4
K:G
 x4 B,C |:"G" D2 G2 B2 |"D" A6 |"C" EG cE GF |"G" E2 D4 |$"C" CE GC ED |"G" C2 B,2 GF |1 %7
"Am" E2 D2 GB |"D" A4 B,C :|2$"D" ED E2 F2 ||"G" G3 A Bc |$"D" d2 d2 e2 | d3 c BA |"G" B2 G2 gf | %14
"C" f2 e4 |$ e2 c3 e |"G" dc BA G2 |"Em" BA G2 F2 |"D" D4 B,C |$"G" D2 G2 B2 |"D" A6 | %21
"C" EG cE GF |"G" E2 D4 |$"C" CE GC EG |"G" B,D GB, DG |"D" Ac B2 F2 |"G" G4 x2 |] %27

